X: 9381
T: Dancing With Mrs. White
R: polka
M: 2/4
K: Dmajor
|:FA/F/ DD|FD E2|cB/c/ BA|FE FA|
FA/F/ DD|FD E2|cB/c/ BA|FE D2:|
|:Ad dA/d/|cd E2|cB/c/ BA|FE FA|
Ad dA/d/|cd E2|cB/c/ BA|FE D2:|

